X: 3
T: Haste To The Wedding
R: jig
M: 6/8
L: 1/8
K: Dmaj
BAD DAG|BAD DAG|BAD DAG|BAD DAG|BAD DAG|BAD DAG|BAD DAG|BAD DAG:||:bad dag|bad dag|bad dag|bad dag|bad dag|bad dag|bad dag|bad dag:|


Tune 582	Setting 13574

